public/hedera.svg

<svg width="20" height="20" viewBox="0 0 20 20" xmlns="http://www.w3.org/2000/svg" id="icon">
<path d="M9.05388 9.47029C9.11467 9.59188 9.05387 9.65267 8.87701 9.65267C8.63339 9.6463 8.39095 9.61668 8.15296 9.56424C7.19678 9.20498 6.49487 8.90099 5.99744 8.66333C5.74 9.29918 5.40787 9.90218 5.00807 10.4596C4.51656 11.2129 4.06816 11.9935 3.665 12.7976C3.33051 13.4036 3.14131 14.0791 3.1123 14.7707C3.11336 15.0414 3.16981 15.3091 3.27817 15.5572C3.38653 15.8052 3.54451 16.0285 3.74239 16.2133C3.91291 16.4036 4.12043 16.5572 4.35231 16.6645C4.58419 16.7719 4.83555 16.8309 5.09099 16.8378C5.34112 16.8366 5.58736 16.7759 5.8095 16.661C5.89887 16.6495 5.98487 16.6195 6.06197 16.5729C6.13907 16.5262 6.20555 16.464 6.25719 16.3901C6.33768 16.3174 6.42906 16.2577 6.52801 16.2133C6.63335 16.2175 6.73671 16.2432 6.83176 16.2889C6.9268 16.3345 7.01152 16.399 7.08072 16.4786C7.16516 16.5758 7.22567 16.6914 7.25735 16.8161C7.28902 16.9409 7.29099 17.0714 7.26312 17.1971C7.20232 17.6171 6.90386 17.8603 6.36221 17.9156C5.40034 17.934 4.46825 17.5817 3.75895 16.9318C3.29013 16.6116 2.90626 16.1821 2.64049 15.6804C2.37472 15.1788 2.23505 14.6199 2.2335 14.0522C2.32306 13.053 2.73198 12.1092 3.39972 11.3605H3.21731C3.04473 11.3719 2.87166 11.3477 2.70877 11.2895C2.54588 11.2314 2.39665 11.1404 2.27027 11.0223C2.1439 10.9043 2.04306 10.7615 1.974 10.6029C1.90494 10.4444 1.8691 10.2733 1.86871 10.1004C1.8526 9.78786 1.90015 9.47534 2.00846 9.18176C2.11677 8.88818 2.28359 8.61967 2.49881 8.39251C2.74351 8.18083 3.02958 8.02238 3.33883 7.92723C3.64807 7.83207 3.97372 7.8023 4.2951 7.8398C4.8478 7.9006 5.25678 7.9614 5.55525 8.01667C5.88973 7.41061 6.07894 6.73515 6.10795 6.04351C6.13248 5.53956 6.00751 5.0396 5.74871 4.60648C5.6311 4.42354 5.46636 4.27568 5.27184 4.17842C5.07732 4.08116 4.86022 4.0381 4.6433 4.05377C4.43308 4.05591 4.22622 4.10698 4.03915 4.20291C3.85208 4.29885 3.68993 4.43701 3.56552 4.60648C3.50863 4.69595 3.42217 4.76265 3.32118 4.79497C3.2202 4.82728 3.11108 4.82317 3.01282 4.78335C2.68771 4.73886 2.37842 4.61552 2.11191 4.42409C1.88546 4.20583 1.72954 3.92477 1.66422 3.61713C1.66132 3.41644 1.69954 3.21728 1.77653 3.03192C1.85353 2.84656 1.96766 2.67894 2.11191 2.53937C2.27889 2.38035 2.47721 2.25791 2.6942 2.17988C2.91118 2.10184 3.14207 2.06991 3.37209 2.08614C3.82104 2.13657 4.25385 2.28312 4.64108 2.51584C5.0283 2.74855 5.36085 3.06197 5.61607 3.43475C6.30032 4.23153 6.65422 5.25968 6.6054 6.30882C6.58014 6.96197 6.42808 7.60396 6.15771 8.19906C7.16498 8.52013 8.1357 8.94622 9.05388 9.47029ZM5.37288 8.39251C5.04645 8.33319 4.71529 8.30359 4.38351 8.30407C4.15412 8.28976 3.92422 8.32204 3.70764 8.39898C3.49107 8.47593 3.29231 8.59593 3.12336 8.75176C2.99305 8.86502 2.8864 9.00291 2.80957 9.15752C2.73274 9.31213 2.68725 9.48041 2.67568 9.65267C2.67568 10.1335 2.88571 10.3712 3.30577 10.3712C3.90269 10.4338 4.50145 9.92535 5.10206 8.84573C5.18142 8.79878 5.24778 8.73271 5.29509 8.65354C5.34239 8.57439 5.36913 8.48465 5.37288 8.39251ZM9.79451 9.65267C8.54172 8.99311 7.85268 8.15485 7.7274 7.13787C7.66446 6.36625 7.88883 5.59856 8.35746 4.98231C8.69936 4.61931 9.12111 4.34092 9.58927 4.16919C10.0574 3.99747 10.5591 3.93715 11.0547 3.99298C12.5285 4.16985 13.6966 5.30657 14.5588 7.40316C15.0342 8.72597 15.6034 9.38554 16.2667 9.38185C16.4746 9.42976 16.6922 9.41248 16.89 9.33238C17.0878 9.25229 17.2561 9.11326 17.3721 8.93416C17.6029 8.65602 17.7299 8.30628 17.7313 7.94482C17.7442 7.67614 17.6843 7.40897 17.5578 7.17158C17.4313 6.93418 17.243 6.73538 17.0128 6.59622C16.7053 6.35658 16.3249 6.22977 15.9351 6.23696C15.9121 6.26318 15.8842 6.2845 15.8528 6.29969C15.8215 6.31488 15.7874 6.32363 15.7527 6.3254C15.7186 6.32422 15.6851 6.31569 15.6546 6.30043C15.6241 6.28517 15.5972 6.26354 15.5758 6.23696C15.4023 6.02755 15.2777 5.78208 15.211 5.51844C15.2119 5.40067 15.2364 5.28428 15.2829 5.17608C15.3294 5.06788 15.397 4.97006 15.4818 4.88836C15.6131 4.7676 15.7717 4.6804 15.9439 4.63421C16.1162 4.58801 16.2971 4.58418 16.4712 4.62306C16.7533 4.68604 17.0157 4.81722 17.2354 5.00512C17.4551 5.19301 17.6254 5.43189 17.7313 5.70084C18.2362 6.72831 18.4284 7.88139 18.2841 9.01707C18.2168 9.89691 17.9761 10.7547 17.5758 11.5411C17.1755 12.3275 16.6235 13.0269 15.9516 13.599C14.6589 14.7392 12.9994 15.3768 11.2758 15.3953C10.7117 15.4546 10.1416 15.3974 9.60058 15.2272C9.05959 15.057 8.55935 14.7775 8.13087 14.4059C7.83041 14.1309 7.58808 13.7984 7.41816 13.4282C7.24824 13.058 7.1542 12.6575 7.14154 12.2504C7.14154 10.935 8.00927 10.1833 9.75029 10.0064L9.79451 9.65267Z" fill="#F0F7F7"/>
</svg>

<svg width="20" height="20" xmlns="http://www.w3.org/2000/svg"><path d="M9.054 9.47c.06.122 0 .183-.177.183a3.83 3.83 0 0 1-.724-.089 27.486 27.486 0 0 1-2.156-.9 8.655 8.655 0 0 1-.989 1.796c-.491.753-.94 1.533-1.343 2.338a4.471 4.471 0 0 0-.553 1.973 1.985 1.985 0 0 0 .63 1.442 1.878 1.878 0 0 0 1.349.625 1.58 1.58 0 0 0 .718-.177.648.648 0 0 0 .448-.27c.08-.074.172-.133.271-.178a.772.772 0 0 1 .553.266.824.824 0 0 1 .182.718c-.06.42-.36.663-.9.719a3.747 3.747 0 0 1-2.604-.984 3.499 3.499 0 0 1-1.526-2.88A4.67 4.67 0 0 1 3.4 11.361h-.183A1.264 1.264 0 0 1 1.87 10.1a2.31 2.31 0 0 1 .63-1.708 2.332 2.332 0 0 1 1.796-.553c.553.06.962.121 1.26.177a4.471 4.471 0 0 0 .553-1.973 2.559 2.559 0 0 0-.36-1.438 1.21 1.21 0 0 0-1.105-.552 1.354 1.354 0 0 0-1.077.552.453.453 0 0 1-.553.177 2.012 2.012 0 0 1-.901-.359 1.575 1.575 0 0 1-.448-.807 1.47 1.47 0 0 1 .448-1.078 1.658 1.658 0 0 1 1.26-.453 3.145 3.145 0 0 1 2.244 1.349 4.118 4.118 0 0 1 .99 2.874 5.04 5.04 0 0 1-.448 1.89c1.007.321 1.978.747 2.896 1.271ZM5.373 8.393a5.49 5.49 0 0 0-.99-.089 1.702 1.702 0 0 0-1.26.448 1.31 1.31 0 0 0-.447.9c0 .482.21.72.63.72.597.062 1.195-.447 1.796-1.526a.553.553 0 0 0 .27-.453Zm4.422 1.26c-1.253-.66-1.942-1.498-2.068-2.515a3.14 3.14 0 0 1 .63-2.156 3.211 3.211 0 0 1 2.698-.989c1.473.177 2.642 1.314 3.504 3.41.475 1.323 1.044 1.983 1.708 1.979a1.039 1.039 0 0 0 1.105-.448c.23-.278.358-.628.36-.99a1.492 1.492 0 0 0-.72-1.348 1.702 1.702 0 0 0-1.077-.359.26.26 0 0 1-.182.088.238.238 0 0 1-.177-.088 1.83 1.83 0 0 1-.365-.719.884.884 0 0 1 .27-.63 1.106 1.106 0 0 1 .99-.265 1.769 1.769 0 0 1 1.26 1.078 5.848 5.848 0 0 1 .553 3.316 6.688 6.688 0 0 1-2.332 4.582 7.185 7.185 0 0 1-4.676 1.796 4.14 4.14 0 0 1-3.145-.99 3.05 3.05 0 0 1-.99-2.155c0-1.315.868-2.067 2.61-2.244l.044-.353Z" fill="#F0F7F7"/></svg>
